X:1
T:Demon Fruitcake
M:3/4
L:1/4
K:C
 G| c c c| c d e| d c A| G2 g| g g g| g e3/2 c/2| c d e| d2 e| c2 e|\
 d2 c| A2 c| G e f| g a g| e c e| d2-e/2-d/2| c2||
